src/assets/logo.svg

<svg xmlns="http://www.w3.org/2000/svg"  viewBox="0 0 50 50" width="50px" height="50px"><path d="M 22 5 C 11.033 5 2 14.033 2 25 C 2 35.967 11.033 45 22 45 C 30.165 45 37.032938 39.939578 40.085938 32.892578 L 40.095703 32.882812 C 41.465703 30.227812 46.012797 19.491859 47.591797 14.880859 C 47.759797 14.378859 48 13.563078 48 12.455078 C 48 8.4090781 44.727641 5 40.681641 5 L 22 5 z M 22 9 C 30.656 9 37 16.344 37 25 C 37 33.656 30.656 41 22 41 C 13.344 41 6 33.656 6 25 C 6 16.344 13.344 9 22 9 z M 20.345703 11 C 19.191703 11 18.510547 11.784422 18.435547 12.982422 C 18.398547 13.574422 18.168625 13.972203 17.765625 14.408203 C 17.047625 15.183203 16.152609 15.86925 15.974609 17.03125 C 15.763609 18.40425 15.520359 19.772484 15.318359 21.146484 C 15.221359 21.803484 15.157719 22.470766 15.136719 23.134766 C 15.114719 23.840766 15.305391 24.583 15.150391 25.25 C 14.775391 26.859 14.221687 28.424391 13.804688 30.025391 C 13.612687 30.760391 13.304047 31.285984 12.623047 31.708984 C 11.083047 32.664984 10.647344 34.090578 11.277344 35.642578 C 11.562344 36.345578 12.244172 36.706641 12.951172 36.556641 C 13.743172 36.389641 13.643828 35.828625 13.548828 35.265625 C 13.447828 34.662625 13.865719 34.634109 14.261719 34.662109 C 15.020719 34.716109 15.461469 34.390594 15.730469 33.683594 C 16.530469 31.583594 17.361359 29.49425 18.193359 27.40625 C 18.520359 26.58525 18.843875 26.490906 19.421875 27.128906 C 20.415875 28.225906 21.349688 29.377766 22.304688 30.509766 C 22.364687 30.580766 22.414547 30.673672 22.435547 30.763672 C 22.823547 32.442672 23.2885 34.108641 23.5625 35.806641 C 23.7585 37.017641 24.562547 37.935953 25.810547 38.001953 C 26.159547 38.019953 26.630938 38.022828 26.835938 37.798828 C 26.968937 37.652828 26.804953 37.103031 26.626953 36.832031 C 25.967953 35.828031 25.825125 34.727547 25.703125 33.560547 C 25.497125 31.604547 25.389672 29.576484 23.888672 28.021484 C 23.466672 27.584484 23.068891 27.117594 23.462891 26.433594 C 23.518891 26.336594 23.480297 26.121438 23.404297 26.023438 C 22.707297 25.115437 22.060766 24.154656 21.259766 23.347656 C 20.736766 22.820656 20.540687 22.441969 20.929688 21.792969 C 21.121688 21.472969 21.328422 21.111859 21.357422 20.755859 C 21.417422 20.018859 21.754562 19.746672 22.476562 19.638672 C 23.500563 19.485672 24.590203 19.398203 25.283203 18.408203 C 25.387203 18.260203 25.738688 18.16775 25.929688 18.21875 C 26.650688 18.41175 27.090156 18.247859 27.160156 17.380859 L 27.826172 17.228516 C 28.391172 16.948516 28.782922 16.758547 29.169922 16.560547 C 29.622922 16.329547 30.054344 16.045094 30.527344 15.871094 C 30.941344 15.719094 31.399578 15.687234 31.767578 15.615234 C 31.591578 15.232234 31.427922 14.880797 31.294922 14.591797 C 30.406922 14.591797 29.476359 14.840437 28.818359 14.523438 C 28.125359 14.188437 27.560453 14.393375 26.939453 14.359375 C 26.511453 14.336375 26.008828 14.401172 25.673828 14.201172 C 24.756828 13.653172 23.987828 14.033672 23.173828 14.388672 C 22.974828 14.475672 22.731766 14.461141 22.509766 14.494141 C 22.489766 14.251141 22.437078 14.005625 22.455078 13.765625 C 22.482078 13.393625 22.66675 13.001203 22.59375 12.658203 C 22.35775 11.555203 21.384703 11 20.345703 11 z M 23.330078 15.873047 C 23.626949 15.880863 23.955719 15.966391 24.308594 16.134766 C 23.637594 16.446766 23.073188 16.725891 22.492188 16.962891 C 22.383187 17.006891 22.176219 16.917219 22.074219 16.824219 C 22.027219 16.782219 22.092109 16.558078 22.162109 16.455078 C 22.430234 16.061953 22.835293 15.86002 23.330078 15.873047 z"/></svg>

<svg xmlns="http://www.w3.org/2000/svg" xmlns:xlink="http://www.w3.org/1999/xlink" viewBox="0,0,256,256" width="50px" height="50px" fill-rule="nonzero"><g fill="#ffffff" fill-rule="nonzero" stroke="none" stroke-width="1" stroke-linecap="butt" stroke-linejoin="miter" stroke-miterlimit="10" stroke-dasharray="" stroke-dashoffset="0" font-family="none" font-weight="none" font-size="none" text-anchor="none" style="mix-blend-mode: normal"><g transform="scale(5.12,5.12)"><path d="M22,5c-10.967,0 -20,9.033 -20,20c0,10.967 9.033,20 20,20c8.165,0 15.03294,-5.06042 18.08594,-12.10742l0.00977,-0.00977c1.37,-2.655 5.91709,-13.39095 7.49609,-18.00195c0.168,-0.502 0.4082,-1.31778 0.4082,-2.42578c0,-4.046 -3.27236,-7.45508 -7.31836,-7.45508zM22,9c8.656,0 15,7.344 15,16c0,8.656 -6.344,16 -15,16c-8.656,0 -16,-7.344 -16,-16c0,-8.656 7.344,-16 16,-16zM20.3457,11c-1.154,0 -1.83516,0.78442 -1.91016,1.98242c-0.037,0.592 -0.26692,0.98978 -0.66992,1.42578c-0.718,0.775 -1.61302,1.46105 -1.79102,2.62305c-0.211,1.373 -0.45425,2.74123 -0.65625,4.11523c-0.097,0.657 -0.16064,1.32428 -0.18164,1.98828c-0.022,0.706 0.16867,1.44823 0.01367,2.11523c-0.375,1.609 -0.9287,3.17439 -1.3457,4.77539c-0.192,0.735 -0.50064,1.26059 -1.18164,1.68359c-1.54,0.956 -1.9757,2.38159 -1.3457,3.93359c0.285,0.703 0.96683,1.06406 1.67383,0.91406c0.792,-0.167 0.69266,-0.72802 0.59766,-1.29102c-0.101,-0.603 0.31689,-0.63152 0.71289,-0.60352c0.759,0.054 1.19975,-0.27152 1.46875,-0.97852c0.8,-2.1 1.63089,-4.18934 2.46289,-6.27734c0.327,-0.821 0.65052,-0.91534 1.22852,-0.27734c0.994,1.097 1.92781,2.24886 2.88281,3.38086c0.06,0.071 0.10986,0.16391 0.13086,0.25391c0.388,1.679 0.85295,3.34497 1.12695,5.04297c0.196,1.211 1.00005,2.12931 2.24805,2.19531c0.349,0.018 0.82039,0.02087 1.02539,-0.20312c0.133,-0.146 -0.03098,-0.6958 -0.20898,-0.9668c-0.659,-1.004 -0.80183,-2.10448 -0.92383,-3.27148c-0.206,-1.956 -0.31345,-3.98406 -1.81445,-5.53906c-0.422,-0.437 -0.81978,-0.90389 -0.42578,-1.58789c0.056,-0.097 0.01741,-0.31216 -0.05859,-0.41016c-0.697,-0.908 -1.34353,-1.86878 -2.14453,-2.67578c-0.523,-0.527 -0.71908,-0.90569 -0.33008,-1.55469c0.192,-0.32 0.39873,-0.68111 0.42773,-1.03711c0.06,-0.737 0.39714,-1.00919 1.11914,-1.11719c1.024,-0.153 2.11364,-0.24047 2.80664,-1.23047c0.104,-0.148 0.45548,-0.24045 0.64648,-0.18945c0.721,0.193 1.16047,0.02911 1.23047,-0.83789l0.66602,-0.15234c0.565,-0.28 0.95675,-0.46997 1.34375,-0.66797c0.453,-0.231 0.88442,-0.51545 1.35742,-0.68945c0.414,-0.152 0.87223,-0.18386 1.24023,-0.25586c-0.176,-0.383 -0.33966,-0.73444 -0.47266,-1.02344c-0.888,0 -1.81856,0.24864 -2.47656,-0.06836c-0.693,-0.335 -1.25791,-0.13006 -1.87891,-0.16406c-0.428,-0.023 -0.93062,0.0418 -1.26562,-0.1582c-0.917,-0.548 -1.686,-0.1675 -2.5,0.1875c-0.199,0.087 -0.44206,0.07247 -0.66406,0.10547c-0.02,-0.243 -0.07269,-0.48852 -0.05469,-0.72852c0.027,-0.372 0.21167,-0.76442 0.13867,-1.10742c-0.236,-1.103 -1.20905,-1.6582 -2.24805,-1.6582zM23.33008,15.87305c0.29687,0.00782 0.62564,0.09334 0.97852,0.26172c-0.671,0.312 -1.23541,0.59113 -1.81641,0.82813c-0.109,0.044 -0.31597,-0.04567 -0.41797,-0.13867c-0.047,-0.042 0.01789,-0.26614 0.08789,-0.36914c0.26812,-0.39313 0.67318,-0.59506 1.16797,-0.58203z"></path></g></g></svg>
